src/vectors/button-loading.svg

<svg xmlns="http://www.w3.org/2000/svg" width="24" height="24" viewBox="0 0 24 24">
  <path fill="#FFF" d="M11.5224452,6.63505603 C11.5224452,6.8966646 11.7362537,7.10874024 12,7.10874024 C12.2637463,7.10874024 12.4775548,6.8966646 12.4775548,6.63505603 L12.4775548,3.47368421 C12.4775548,3.21207564 12.2637463,3 12,3 C11.7362537,3 11.5224452,3.21207564 11.5224452,3.47368421 L11.5224452,6.63505603 Z M11.5224452,20.5263158 C11.5224452,20.7879244 11.7362537,21 12,21 C12.2637463,21 12.4775548,20.7879244 12.4775548,20.5263158 L12.4775548,18.9451025 C12.4775548,18.6834939 12.2637463,18.4714182 12,18.4714182 C11.7362537,18.4714182 11.5224452,18.6834939 11.5224452,18.9451025 L11.5224452,20.5263158 Z M5.95268042,12.4736842 C6.21642668,12.4736842 6.43023526,12.2616086 6.43023526,12 C6.43023526,11.7383914 6.21642668,11.5263158 5.95268042,11.5263158 L3.47755485,11.5263158 C3.21380859,11.5263158 3,11.7383914 3,12 C3,12.2616086 3.21380859,12.4736842 3.47755485,12.4736842 L5.95268042,12.4736842 Z M20.5224452,12.4736842 C20.7861914,12.4736842 21,12.2616086 21,12 C21,11.7383914 20.7861914,11.5263158 20.5224452,11.5263158 L20.142346,11.5263158 C19.8785997,11.5263158 19.6647912,11.7383914 19.6647912,12 C19.6647912,12.2616086 19.8785997,12.4736842 20.142346,12.4736842 L20.5224452,12.4736842 Z M8.74238704,7.30909356 C8.873358,7.53616752 9.16511494,7.61493494 9.39404439,7.48502551 C9.62297385,7.35511608 9.7023849,7.06572387 9.57141394,6.83864991 L8.15381806,4.38086001 C8.02284709,4.15378605 7.73109016,4.07501864 7.5021607,4.20492806 C7.27323125,4.33483749 7.1938202,4.6242297 7.32479116,4.85130366 L8.74238704,7.30909356 Z M15.8473444,19.6193273 C15.9784197,19.846342 16.2702127,19.9249776 16.4990825,19.7949647 C16.7279523,19.6649518 16.8072304,19.3755238 16.6761551,19.148509 L16.0466983,18.0583263 C15.915623,17.8313115 15.6238299,17.752676 15.3949602,17.8826888 C15.1660904,18.0127017 15.0868123,18.3021298 15.2178876,18.5291445 L15.8473444,19.6193273 Z M6.79821164,15.5522446 C7.02612706,15.4205927 7.10329194,15.1306032 6.97056423,14.9045351 C6.83783651,14.6784669 6.54547747,14.6019275 6.31756205,14.7335794 L4.37910907,15.8532979 C4.15119364,15.9849498 4.07402876,16.2749393 4.20675648,16.5010074 C4.3394842,16.7270756 4.63184323,16.803615 4.85975866,16.6719631 L6.79821164,15.5522446 Z M19.6184689,8.14809175 C19.8471581,8.0177666 19.9260346,7.7282306 19.7946445,7.50139498 C19.6632544,7.27455936 19.3713525,7.19632216 19.1426634,7.32664731 L19.0177209,7.39784938 C18.7890317,7.52817452 18.7101552,7.81771053 18.8415453,8.04454615 C18.9729354,8.27138177 19.2648373,8.34961896 19.4935265,8.21929382 L19.6184689,8.14809175 Z M6.62083791,9.44055406 C6.84880011,9.57212631 7.14113192,9.49548465 7.2737793,9.26937012 C7.40642668,9.04325558 7.32915875,8.75329315 7.10119656,8.62172089 L4.85961319,7.32795294 C4.63165099,7.19638069 4.33931917,7.27302235 4.2066718,7.49913689 C4.07402442,7.72525142 4.15129235,8.01521386 4.37925454,8.14678611 L6.62083791,9.44055406 Z M19.1401584,16.6719151 C19.3680471,16.8036125 19.6604217,16.7271314 19.7931952,16.5010897 C19.9259687,16.275048 19.8488626,15.9850432 19.6209739,15.8533458 L18.7722088,15.3628427 C18.54432,15.2311453 18.2519455,15.3076265 18.119172,15.5336681 C17.9863984,15.7597098 18.0635045,16.0497146 18.2913933,16.181412 L19.1401584,16.6719151 Z M9.23449712,17.7463428 C9.36551315,17.5192944 9.28615952,17.2298867 9.05725585,17.0999326 C8.82835218,16.9699785 8.53657962,17.0486889 8.4055636,17.2757373 L7.32483784,19.1486154 C7.19382182,19.3756638 7.27317544,19.6650715 7.50207912,19.7950256 C7.73098279,19.9249797 8.02275535,19.8462693 8.15377137,19.6192209 L9.23449712,17.7463428 Z"/>
</svg>

<svg xmlns="http://www.w3.org/2000/svg" width="24" height="24" viewBox="0 0 24 24">
    <path fill="#FFF" d="M11.522 6.635c0 .262.214.474.478.474a.476.476 0 0 0 .478-.474V3.474A.476.476 0 0 0 12 3a.476.476 0 0 0-.478.474v3.161Zm0 13.891c0 .262.214.474.478.474a.476.476 0 0 0 .478-.474v-1.58A.476.476 0 0 0 12 18.47a.476.476 0 0 0-.478.474v1.581Zm-5.57-8.052A.476.476 0 0 0 6.43 12a.476.476 0 0 0-.477-.474H3.478A.476.476 0 0 0 3 12c0 .262.214.474.478.474h2.475Zm14.57 0A.476.476 0 0 0 21 12a.476.476 0 0 0-.478-.474h-.38a.476.476 0 0 0-.477.474c0 .262.214.474.477.474h.38ZM8.742 7.309a.48.48 0 0 0 .652.176.472.472 0 0 0 .177-.646L8.154 4.38a.48.48 0 0 0-.652-.176.472.472 0 0 0-.177.646L8.742 7.31Zm7.105 12.31a.48.48 0 0 0 .652.176.472.472 0 0 0 .177-.646l-.63-1.09a.48.48 0 0 0-.651-.176.472.472 0 0 0-.177.646l.63 1.09Zm-9.049-4.067a.472.472 0 0 0 .173-.647.48.48 0 0 0-.653-.171l-1.939 1.12a.472.472 0 0 0-.172.647.48.48 0 0 0 .653.171l1.938-1.12Zm12.82-7.404a.472.472 0 0 0 .177-.647.48.48 0 0 0-.652-.174l-.125.07a.472.472 0 0 0-.176.648.48.48 0 0 0 .652.174l.124-.07ZM6.621 9.441a.48.48 0 0 0 .653-.172.472.472 0 0 0-.173-.647L4.86 7.328a.48.48 0 0 0-.653.171.472.472 0 0 0 .172.648L6.621 9.44Zm12.52 7.23a.48.48 0 0 0 .652-.17.472.472 0 0 0-.172-.648l-.849-.49a.48.48 0 0 0-.653.17.472.472 0 0 0 .172.648l.85.49Zm-9.907 1.075a.472.472 0 0 0-.177-.646.48.48 0 0 0-.651.176l-1.081 1.873a.472.472 0 0 0 .177.646.48.48 0 0 0 .652-.176l1.08-1.873Z"/>
</svg>
